public/assets/logos/software/adobe-lightroom.svg

<svg fill="none" height="11" viewBox="0 0 10 11" width="10" xmlns="http://www.w3.org/2000/svg" xmlns:xlink="http://www.w3.org/1999/xlink"><clipPath id="a"><path d="m0 .503906h10v9.752h-10z"/></clipPath><g clip-path="url(#a)"><path d="m1.77067.5047h6.45866c.97894 0 1.77067.79173 1.77067 1.77067v6.20905c0 .97894-.79173 1.77068-1.77067 1.77068h-6.45866c-.978938 0-1.77067-.79174-1.77067-1.77068v-6.20905c0-.97894.791732-1.77067 1.77067-1.77067z" fill="#001e36"/><path d="m3.51014 7.39628h-2.3791c-.0429 0-.0585-.02341-.0585-.07411v-4.25897c0-.0429.0156-.0585.0546-.0585h.73713c.0273 0 .0429.0156.0429.0468v3.49844h1.73167c.039 0 .0507.0195.0429.0585l-.1092.72543c-.0039.0234-.0117.0429-.0234.0507s-.0273.01171-.039.01171zm.59282-3.33464h.65913c.039 0 .0624.0195.078.0663.0117.02731.0234.06241.0273.09751.0078.0429.0117.0858.0156.1287.0039.04681.0039.09751.0039.14821.10921-.14041.24571-.26521.40172-.35881.16771-.10141.36271-.15601.55772-.14821.039 0 .0546.0195.0546.0585v.81123c0 .03511-.0195.04681-.0585.04681-.1326-.0078-.26521 0-.39392.0273-.1092.0234-.2106.0624-.31201.1131-.0741.039-.1443.09361-.20281.15601v2.12558c0 .0429-.0156.05851-.0507.05851h-.72543c-.0429 0-.0585-.01951-.0585-.06631v-2.30889c0-.1014 0-.20281-.0039-.31201 0-.10921-.0039-.21841-.0078-.32372-.0039-.0936-.0117-.1833-.0234-.27691 0-.0117 0-.0234.0078-.039.0117-.0039.0195-.0078.0312-.0039zm4.75429-.61622c-.0858-.039-.18331-.05851-.28081-.07021-.14041-.0156-.28471-.0234-.42512-.0234-.40951 0-.76833.08581-1.06084.25741-.29251.17161-.53432.42512-.69033.72933-.1638.30812-.24181.67473-.24181 1.08425-.0039.24571.0273.49142.09361.73323.0585.2028.1443.39391.26521.56942.1131.1638.24961.30031.40951.41342.15991.1131.33932.1989.53043.2496.195.05461.40561.08191.60842.08191.14431 0 .28861-.0078.42902-.0273.117-.0117.23011-.0429.33931-.08191.0429-.0195.0663-.0624.0624-.1131v-.62013c.0039-.0195-.0039-.0468-.0195-.0624-.0117-.0078-.0351-.0195-.0663.0039-.0936.0351-.19111.0585-.29251.07021-.12091.0117-.24181.0156-.36272.0156-.1092 0-.22231-.01561-.32371-.04681-.1131-.0273-.21841-.0741-.31591-.1326-.10531-.0624-.19111-.14431-.26131-.24181-.07801-.10921-.14041-.23011-.18331-.35882-.0468-.1599-.0702-.31981-.0663-.48752-.0039-.2301.0429-.46021.1365-.66692.08581-.17941.22231-.33151.39002-.43682.18331-.1092.39391-.16381.60842-.15991.12871 0 .26131.0078.39002.03511.1053.0156.20281.0507.30031.1014.0156.0078.039.0078.0546 0 .0156-.0156.0273-.039.0234-.0624v-.65133c0-.0429-.0156-.078-.0507-.1014z" fill="#31a8ff"/></g></svg>

<svg width="10" height="11" viewBox="0 0 10 11" fill="none" xmlns="http://www.w3.org/2000/svg">
<g clip-path="url(#clip0_86_633)">
<path d="M1.77067 0.5047H8.22933C9.20827 0.5047 10 1.29643 10 2.27537V8.48442C10 9.46336 9.20827 10.2551 8.22933 10.2551H1.77067C0.791732 10.2551 0 9.46336 0 8.48442V2.27537C0 1.29643 0.791732 0.5047 1.77067 0.5047Z" fill="#001E36"/>
<path d="M3.51014 7.39628H1.13104C1.08814 7.39628 1.07254 7.37287 1.07254 7.32217V3.0632C1.07254 3.0203 1.08814 3.0047 1.12714 3.0047H1.86427C1.89157 3.0047 1.90717 3.0203 1.90717 3.0515V6.54994H3.63884C3.67784 6.54994 3.68954 6.56944 3.68174 6.60844L3.57254 7.33387C3.56864 7.35727 3.56084 7.37677 3.54914 7.38457C3.53744 7.39237 3.52184 7.39628 3.51014 7.39628ZM4.10296 4.06164H4.76209C4.80109 4.06164 4.82449 4.08114 4.84009 4.12794C4.85179 4.15525 4.86349 4.19035 4.86739 4.22545C4.87519 4.26835 4.87909 4.31125 4.88299 4.35415C4.88689 4.40096 4.88689 4.45166 4.88689 4.50236C4.9961 4.36195 5.1326 4.23715 5.28861 4.14355C5.45632 4.04214 5.65132 3.98754 5.84633 3.99534C5.88533 3.99534 5.90093 4.01484 5.90093 4.05384V4.86507C5.90093 4.90018 5.88143 4.91188 5.84243 4.91188C5.70983 4.90408 5.57722 4.91188 5.44851 4.93918C5.33931 4.96258 5.23791 5.00158 5.1365 5.05228C5.0624 5.09128 4.9922 5.14589 4.93369 5.20829V7.33387C4.93369 7.37677 4.91809 7.39238 4.88299 7.39238H4.15756C4.11466 7.39238 4.09906 7.37287 4.09906 7.32607V5.01718C4.09906 4.91578 4.09906 4.81437 4.09516 4.70517C4.09516 4.59596 4.09126 4.48676 4.08736 4.38145C4.08346 4.28785 4.07566 4.19815 4.06396 4.10454C4.06396 4.09284 4.06396 4.08114 4.07176 4.06554C4.08346 4.06164 4.09126 4.05774 4.10296 4.06164ZM8.85725 3.44542C8.77145 3.40642 8.67394 3.38691 8.57644 3.37521C8.43603 3.35961 8.29173 3.35181 8.15132 3.35181C7.74181 3.35181 7.38299 3.43762 7.09048 3.60922C6.79797 3.78083 6.55616 4.03434 6.40015 4.33855C6.23635 4.64667 6.15834 5.01328 6.15834 5.4228C6.15444 5.66851 6.18564 5.91422 6.25195 6.15603C6.31045 6.35883 6.39625 6.54994 6.51716 6.72545C6.63026 6.88925 6.76677 7.02576 6.92667 7.13887C7.08658 7.25197 7.26599 7.33777 7.4571 7.38847C7.6521 7.44308 7.86271 7.47038 8.06552 7.47038C8.20983 7.47038 8.35413 7.46258 8.49454 7.44308C8.61154 7.43138 8.72465 7.40018 8.83385 7.36117C8.87675 7.34167 8.90015 7.29877 8.89625 7.24807V6.62794C8.90015 6.60844 8.89235 6.58114 8.87675 6.56554C8.86505 6.55774 8.84165 6.54604 8.81045 6.56944C8.71685 6.60454 8.61934 6.62794 8.51794 6.63965C8.39703 6.65135 8.27613 6.65525 8.15522 6.65525C8.04602 6.65525 7.93291 6.63964 7.83151 6.60844C7.71841 6.58114 7.6131 6.53434 7.5156 6.47584C7.41029 6.41344 7.32449 6.33153 7.25429 6.23403C7.17628 6.12482 7.11388 6.00392 7.07098 5.87521C7.02418 5.71531 7.00078 5.5554 7.00468 5.38769C7.00078 5.15759 7.04758 4.92748 7.14118 4.72077C7.22699 4.54136 7.36349 4.38926 7.5312 4.28395C7.71451 4.17475 7.92511 4.12014 8.13962 4.12404C8.26833 4.12404 8.40093 4.13184 8.52964 4.15915C8.63494 4.17475 8.73245 4.20985 8.82995 4.26055C8.84555 4.26835 8.86895 4.26835 8.88455 4.26055C8.90015 4.24495 8.91185 4.22155 8.90795 4.19815V3.54682C8.90795 3.50392 8.89235 3.46882 8.85725 3.44542Z" fill="#31A8FF"/>
</g>
<defs>
<clipPath id="clip0_86_633">
<rect width="10" height="9.752" fill="white" transform="translate(0 0.503906)"/>
</clipPath>
</defs>
</svg>
